X: 1
T: Arthur Muise
C: Brenda Stubbert
R: reel
Z: 2014 John Chambers <jc:trillian.mit.edu>
S: printed copy of unknown origin
M: C|
L: 1/8
K: Amix
Ad |\
cA A/A/A F<AED | CA,CE Ace=c | BG-~G2 (E/F/G) DG | B,G,B,D GBdB |
cA A/A/A FAED | CA,CE Acec | dcde (f/^g/a) Tgf | ecdB A/A/A :|[K:=c][K:Ador]
((3ef^g) |\
aA A/A/A {AB}c2BA | aA A/A/A cdec | BG G/G/G Tg2fg | ecdc BGGg |
aA A/A/A {AB}c2BA | aA A/A/A cde^c | d^cde (f/^g/a) gf | e^cdB A/A/A :|
